X:402
T:Reel 402
M:4/4
K:Dmaj
L:1/8
B|A2FA BcdB|A2FA BEEc|A2FA Beec|dABG FDD:|c|dAFA dfaf|gfed cdec|dAFA BABc|dABG FDDc|dAFA dfaf|gfed cde2|defg abaf|gbag fdd|
